assets/icons/icon_defrost.svg

<svg width="30" height="30" viewBox="0 0 30 30" fill="none" xmlns="http://www.w3.org/2000/svg">
<path d="M17.7935 19.209C17.7935 19.4532 17.7935 19.937 17.7935 20.1768H16.8887C16.8887 19.8083 16.8887 19.0669 16.8887 18.6985C15.1561 17.7795 15.4999 17.4732 15.4818 19.502C15.717 19.6352 16.7259 20.2034 16.7802 20.2389C16.269 21.22 16.3775 20.9981 15.4773 20.5142V21.664H14.5725C14.5725 21.4597 14.5725 20.5763 14.5725 20.5275L14.1201 20.7761L13.6677 21.0247C13.6677 21.0247 13.2153 20.2789 13.2153 20.2744C13.2153 20.27 14.3011 19.6529 14.5408 19.5153C14.5408 19.1113 14.5408 18.2989 14.5408 17.8949L13.1339 18.7029V20.1812H12.2291C12.2291 19.9415 12.2291 19.4576 12.2291 19.2179C12.0481 19.3244 11.2565 19.7683 11.2112 19.7861L10.9941 19.3866C10.9089 19.2675 10.8376 19.1394 10.7815 19.0048L11.7722 18.441C10.9488 17.9216 10.6548 18.2013 11.3424 17.2068C11.3424 17.2068 12.6996 17.9748 12.6996 17.9482C13.9572 17.0603 14.9118 17.4821 12.6996 16.3234C12.496 16.4344 11.3424 17.0914 11.3877 17.047C11.4329 17.0026 10.9353 16.319 10.9353 16.3101C12.1024 15.6442 11.84 15.9105 10.7634 15.2402C10.7634 15.2402 11.2157 14.4589 11.2157 14.4899L11.7089 14.7652L12.202 15.0404C12.202 15.1558 12.202 14.1836 12.202 14.046H13.1067C13.1067 14.4233 13.1067 15.1825 13.1067 15.5598L14.577 16.3855V14.7252C14.3372 14.5876 13.2967 14.006 13.247 13.9705C13.7763 12.9939 13.6089 13.1936 14.5725 13.713V12.5943H15.4773C15.4773 12.8784 15.4773 13.4422 15.4773 13.7264C16.4499 13.1803 16.2509 13.0738 16.7802 14.0016L15.4727 14.7385C15.5044 16.8472 15.1289 16.5143 16.9249 15.5598V14.0593H17.8297C17.8297 14.2369 17.8297 15.0182 17.8297 15.0582L18.3183 14.7829C18.5762 14.6276 18.7978 14.5033 18.7978 14.5033C18.9624 14.7451 19.1134 14.9955 19.2502 15.2535C18.3861 15.8706 17.7845 15.6042 19.11 16.3101L18.6576 17.0559C18.6576 17.0559 17.3321 16.3101 17.3502 16.3323C17.3683 16.3545 15.9161 17.1402 15.9206 17.1669L17.3321 17.9615C17.1375 18.108 18.7616 17.1713 18.6893 17.229C18.6893 17.229 19.1416 17.9748 19.1416 17.9793C17.884 18.6452 18.3002 18.4232 19.2457 19.0359C18.7164 20.1191 18.7933 19.7328 17.8071 19.2312M15.0023 5.62451C15.0023 5.62451 9.75 13.7308 9.75 17.0737C9.75 20.4165 12.1024 23.1245 15.0023 23.1245C17.9021 23.1245 20.25 20.4165 20.25 17.0737C20.25 13.7308 15.0023 5.62451 15.0023 5.62451Z" fill="white"/>
</svg>

<svg xmlns="http://www.w3.org/2000/svg" width="30" height="30" fill="none" viewBox="0 0 30 30"><path fill="#fff" d="M17.794 19.209v.968h-.905v-1.479c-1.733-.919-1.39-1.225-1.407.804.235.133 1.244.701 1.298.737-.511.981-.402.76-1.303.275v1.15h-.905v-1.137l-.452.25-.452.248s-.453-.746-.453-.75 1.086-.622 1.326-.76v-1.62l-1.407.808v1.478h-.905v-.963c-.18.106-.972.55-1.018.568l-.217-.4a2 2 0 0 1-.213-.381l.991-.564c-.823-.52-1.117-.24-.43-1.234 0 0 1.358.768 1.358.741 1.257-.888 2.212-.466 0-1.625-.204.111-1.358.768-1.312.724.045-.044-.453-.728-.453-.737 1.167-.666.905-.4-.172-1.07 0 0 .453-.781.453-.75l.493.275.493.275v-.994h.905v1.514l1.47.825v-1.66c-.24-.137-1.28-.719-1.33-.755.53-.976.362-.776 1.326-.257v-1.119h.904v1.132c.973-.546.774-.652 1.303.276l-1.307.736c.031 2.11-.344 1.776 1.452.822v-1.5h.905v.998l.488-.275c.258-.155.48-.28.48-.28q.246.363.452.75c-.864.618-1.465.351-.14 1.057l-.452.746s-1.326-.746-1.308-.724-1.434.808-1.43.835l1.412.794c-.195.147 1.43-.79 1.357-.732 0 0 .453.746.453.75-1.258.666-.842.444.104 1.057-.53 1.083-.453.697-1.439.195M15.002 5.625S9.75 13.73 9.75 17.074s2.352 6.05 5.252 6.05 5.248-2.707 5.248-6.05-5.248-11.45-5.248-11.45"/></svg>
